react/assets/icons/shuffle.svg

<svg role="img" xmlns="http://www.w3.org/2000/svg" width="48px" height="48px" viewBox="0 0 24 24" aria-labelledby="shuffleIconTitle" stroke-linecap="square" stroke-linejoin="miter" fill="none"> <title id="shuffleIconTitle">Shuffle</title> <path d="M21 16.0399H17.7707C15.8164 16.0399 13.9845 14.9697 12.8611 13.1716L10.7973 9.86831C9.67384 8.07022 7.84196 7 5.88762 7L3 7"/> <path d="M21 7H17.7707C15.8164 7 13.9845 8.18388 12.8611 10.1729L10.7973 13.8271C9.67384 15.8161 7.84196 17 5.88762 17L3 17"/> <path d="M19 4L22 7L19 10"/> <path d="M19 13L22 16L19 19"/> </svg>

<svg xmlns="http://www.w3.org/2000/svg" width="48" height="48" viewBox="0 0 24 24" aria-labelledby="shuffleIconTitle" stroke-linecap="square" fill="none"><path d="M21 16.04h-3.23c-1.954 0-3.785-1.07-4.909-2.868l-2.064-3.304C9.674 8.07 7.842 7 5.887 7H3"/><path d="M21 7h-3.23c-1.954 0-3.785 1.184-4.909 3.173l-2.064 3.654C9.674 15.817 7.842 17 5.887 17H3"/><path d="M19 4l3 3-3 3M19 13l3 3-3 3"/></svg>
